!!! OTL: Berkowitz328
!!! Chapter: 1
!!! Section: III
!!! Page: 80
!!! Mode: 
!!! Encoder: DJB
**kern
*staff1
*I"Piano
=1-
*clefG2
*k[f#c#]
*D:
*met(c|)
*M2/2
8f#/L
8e/
8d/
8e/J
8f#/L
8g/J
4a/
=2
4dd\
8a/L
8g/J
2a/
=3
4ee\
8a/L
8g#/J
[2a/
=4
8a/L]
8g/
8f#/
8g/J
8a/L
8g/
8f#/
8e/J
=5
8d/L
8c#/
8d/
8e/J
8f#/L
8g/J
4a/
=6
4b\
8g/L
8f#/J
2g/
=7
4dd\
8g/L
8f#/J
4g/
4b\
=8
!!linebreak:original
8a/L
8g#/
8a/
8g#/J
8a\L
8b\
8cc#\
8a\J
=9
4dd\
4r
2r
=10
8b/L
8a#/
8b/
8a#/J
8b\L
8cc#\
8dd\
8b\J
=11
4cc#\
8f#/L
8e#/J
2f#/
=12
4cc#\
8f#/L
8e#/J
4f#/
4ee\
=13
4ee\
2dd\
4cc#\
=14
!!linebreak:original
8b/L
8a#/
8b/
8a#/J
8b\L
8cc#\
8dd\
8b\J
=15
8a\L
8b\
8cc#\
8a\J
8g#/L
8a/
8b/
8a/J
=16
8f#/L
8e#/
8f#/
8a/J
8g#/L
8c#/
8d#/
8e#/J
=17
2.f#/
4e/
=18
8d/L
8c#/
8d/
8e/J
8f#/L
8g/J
4a/
=19
4b\
8g/L
8f#/J
2g/
=20
!!linebreak:original
4dd\
8g/L
8f#/J
4g/
4b\
=21
4b\
[4a/
8a/L]
8b/
8a/
8g/J
=22
8f#/L
8e/
8d/
8e/J
8f#/L
8g/J
4a/
=23
4dd\
8a/L
8g/J
2a/
=24
4ee\
8a/L
8g#/J
4a/
[4a/
=25
8a/L]
8g/
8f#/
8e/J
4d/
4r
==
*-
